packages/icons/assets/DaemonSet.svg

<svg xmlns="http://www.w3.org/2000/svg" fill="none" viewBox="0 0 16 16"><path fill="#414141" d="M0 15V1h16v14H0zm1-1h14V2H1v12zm1-3.083V6.57593l3.495-1.521.19201.08301 3.31397 1.43701V10.918l-3.50501 1.6369L2 10.917zm.97705-.635l2.03394.9541V8.73608l-2.03394-.96899V10.282zm3.01001-1.53298v2.48388l2.03491-.9499V7.84204l-2.03491.90698zM3.58704 6.96606l1.92199.91382 1.97901-.88281-1.99109-.86304-1.90991.83203zm6.90986 3.58884L9.271 9.98096V8.88794l.743.34814v-.60815l.5.19995.48-.19995v.6001l.518-.24292v1.09179L10.5 10.55l-.0031.0049zm2.0141-.93991V8.52295l.517-.24097v-.5061l.976-.40991v1.552l-1.49.69995-.003-.00293zm-2.007-1.86694l-.49-.19995v-.81006h-.0059v-.03711l-.73613-.33789v-.22803l.87303-.427.365.17407.391-.17505.61.26587v.54517l-.518.23095v.79493l-.487.19995-.002.00415zm2.523-1.05713v-.84888l-.517.229v-.75292l-.374-.16309.353-.15698-.475-.20606 1.169-.57202.8201.35498v1.70703l-.9751.40796-.001.00098zM8.271 5.9021l-1.26795-.58203V4.5769l.65393-.28491 1.23804.54004-.30798.13403.40002.1919-.71912.35205v.39307L8.271 5.9021zm1.876-1.61499l-1.23794-.54004 1.58894-.69214.1919.08399 1.2872.5581-1.1691.57202-.31-.13403-.349.1521h-.002z"/></svg>

<svg width="16" height="16" viewBox="0 0 16 16" fill="none" xmlns="http://www.w3.org/2000/svg">
<path d="M0 15V1H16V15H0ZM1 14H15V2H1V14ZM2 10.917V6.57593L5.495 5.05493L5.68701 5.13794L9.00098 6.57495V10.918L5.49597 12.5549L2 10.917ZM2.97705 10.282L5.01099 11.2361V8.73608L2.97705 7.76709V10.282ZM5.98706 8.74902V11.2329L8.02197 10.283V7.84204L5.98706 8.74902ZM3.58704 6.96606L5.50903 7.87988L7.48804 6.99707L5.49695 6.13403L3.58704 6.96606ZM10.4969 10.5549L9.271 9.98096V8.88794L10.014 9.23608V8.62793L10.514 8.82788L10.994 8.62793V9.22803L11.512 8.98511V10.0769L10.5 10.55L10.4969 10.5549ZM12.511 9.61499V8.52295L13.028 8.28198V7.77588L14.004 7.36597V8.91797L12.514 9.61792L12.511 9.61499ZM10.504 7.74805L10.014 7.5481V6.73804H10.0081V6.70093L9.27197 6.36304V6.13501L10.145 5.70801L10.51 5.88208L10.901 5.70703L11.511 5.9729V6.51807L10.993 6.74902V7.54395L10.506 7.7439L10.504 7.74805ZM13.027 6.69092V5.84204L12.51 6.07104V5.31812L12.136 5.15503L12.489 4.99805L12.014 4.79199L13.183 4.21997L14.0031 4.57495V6.28198L13.028 6.68994L13.027 6.69092ZM8.271 5.9021L7.00305 5.32007V4.5769L7.65698 4.29199L8.89502 4.83203L8.58704 4.96606L8.98706 5.15796L8.26794 5.51001V5.90308L8.271 5.9021ZM10.147 4.28711L8.90906 3.74707L10.498 3.05493L10.6899 3.13892L11.9771 3.69702L10.808 4.26904L10.498 4.13501L10.149 4.28711H10.147Z" fill="#414141"/>
</svg>
